client/resources/iconsets/breeze/src/svg/16x16/icon_spanner.svg

<svg xmlns="http://www.w3.org/2000/svg" width="16" height="16" viewBox="0 0 16 16">
 <path style="fill:#6d6d70"
       d="M 2 1 C 1.446 1 1 1.446 1 2 L 1 6 C 1 6.554 1.446 7 2 7 L 3 7 L 3 13 L 4 13 L 9 13 L 9 14 C 9 14.554 9.446 15 10 15 L 14 15 C 14.554 15 15 14.554 15 14 L 15 10 C 15 9.446 14.554 9 14 9 L 10 9 C 9.446 9 9 9.446 9 10 L 9 12 L 4 12 L 4 7 L 6 7 C 6.554 7 7 6.554 7 6 L 7 4 L 9 4 L 9 6 C 9 6.554 9.446 7 10 7 L 14 7 C 14.554 7 15 6.554 15 6 L 15 2 C 15 1.446 14.554 1 14 1 L 10 1 C 9.446 1 9 1.446 9 2 L 9 3 L 7 3 L 7 2 C 7 1.446 6.554 1 6 1 L 2 1 z M 2 2 L 6 2 L 6 6 L 2 6 L 2 2 z M 10 2 L 14 2 L 14 6 L 10 6 L 10 2 z "
       />
</svg>

<svg xmlns="http://www.w3.org/2000/svg" width="16" height="16"><path d="M2 1a1 1 0 0 0-1 1v4a1 1 0 0 0 1 1h1v6h1 5v1a1 1 0 0 0 1 1h4a1 1 0 0 0 1-1v-4a1 1 0 0 0-1-1h-4a1 1 0 0 0-1 1v2H4V7h2a1 1 0 0 0 1-1V4h2v2a1 1 0 0 0 1 1h4a1 1 0 0 0 1-1V2a1 1 0 0 0-1-1h-4a1 1 0 0 0-1 1v1H7V2a1 1 0 0 0-1-1H2zm0 1h4v4H2V2zm8 0h4v4h-4V2z" fill="#6d6d70"/></svg>
